X:1
T:James Gibb editions
T:Beati estis - Handl
T:#
%%score [ 1 2 3 4 ]
L:1/8
Q:1/4=80
M:4/4
K:Eb
V:1 treble nm="Soprano" snm="S"
V:2 treble nm="Alto" snm="A"
V:3 treble-8 nm="Tenor" snm="T"
V:4 bass nm="Bass" snm="B"
V:1
"^Beati estis""^Jacob Handl\n(1550-91)"!p!"^moderato""^Matthew 5:11-12a"!<(! B4 !>!c4-!<)! | %1
w: Be- a\-|
 c2 B2 !>!B4 |"^," B4!p! B2 ed | cB A2 z2 !>!F2- | F2 F2 F2 F2 |[M:4/4] F4 z4 | E2 ed cB A2 | %7
w: * ti e-|stis, cum ma- le-|di- xe- rint vo\-|* bis ho- mi-|nes,|cum ma- le- di- xe- rint|
 G2 G2 FF"^," F2 | F2 fe dc B2 | z FBA GF E2 | G2 G2 F3 F | G2 z E G>A B2 | FGAG E4 | z4 E2 G>A | %14
w: vo- bis ho- mi- nes,|cum ma- le- di- xe- rint,|cum ma- le- di- xe- rint|vo- bis ho- mi-|nes et per- se- cu-|ti vos fu- e- rint,|et per- se-|
 B2"^," F2 A2 c>d | e2"^," d2 c !>!B2 =A | B2 z B B>A"^," G2 | cc A2"^," F2 B2 | !>!G2 G2 F4 | %19
w: cu- ti, et per- se-|cu- ti vos fu- e-|rint, et di- xe- rint|o- mne ma- lum ad-|ver- sum vos,|
 z2 B2 B>A G2 | BB G2 EecA |"^," G2 !>!B3 =A !>!A2 |"^," B2 B4 =A2 | B4 z B (G/F/G/A/ | %24
w: et di- xe- rint|o- mne ma- lum ad- ver- sum|vos men- ti- en-|tes pro- pter|me; gau- de\- * * *|
 B2)"^," Ee de !>!d2 |"^," e2 B2 BB !>!B2 | B2"^," G2 FG F2 | G4 z2 G2- | G2 G2"^," G2 !>!G2- | %29
w: * te et ex- ul- ta-|te, et ex- ul- ta-|te, et ex- ul- ta|te, quo\-|* ni- am mer\-|
 G2 =E2 !>!F4 | F2 f4 _e2 | d2 c2"^," B4 | B4 !>!B4 |"^," B2 E>!<(!F G2 A2!<)! | %34
w: * ces ve-|stra co- pi-|o- sa est|in coe-|lis, co- pi- o- sa|
"^," B4"^cresc." B4- | B2 c2 d2 e2 |!f! f2 g2 f2"^," e2 |!<(! d2!<)!!>(! e4!>)! d2 | !fermata!e8 |] %39
w: est, co\-|* pi- o- sa|est in coe- lis,|in coe\- *|lis.|
V:2
!p!!<(! G4 !>!A4-!<)! | A2 G2 !>!F4 | G8 |!p! E2 AG FE D2 | C2 D2 C3 C |[M:4/4] D4 B,2 ED | %6
w: Be- a\-|* ti e-|stis,|cum ma- le- di- xe- rint|vo- bis ho- mi-|nes, cum ma- le-|
 CB,"^," A,2 E2 E2 | (!>!E3 D C2) C2 | D4 z2 F2 | BAGF E2 !>!B,2 |"^," E2 E4 x2 | E4 z2 B,2 | %12
w: di- xe- rint vo- bis|ho\- * * mi-|nes, cum|ma- le- di- xe- rint vo-|bis ho-|nes et|
 D>E F2 C2 z B, | D>E F2 EG B>A | G2 z F FC A2 | B3 F AF"^,"FF | F>E"^," D2 GG E2 | %17
w: per- se- cu\-- ti, et|per- se- cu- ti vos fu- e-|rint, et per- se- cu-|ti vos fu- e- rint, et|di- xe- rint o- mne ma-|
"^," C2 F2 DD B,2 | B,B, C2"^," F,2 F,2 | F>E D2 G2 G!>!E |"^," E2 B,2 CC E2 | E2 G2 !>!F2 F2 | %22
w: lum ad- ver- sum vos|men- ti- en- tes, et|di- xe- rint o- mne ma-|lum ad- ver- sum vos|men- ti- en- tes|
 F4 F4 | D6 B2 | (G/F/G/A/ B2) B4- |"^," B2 G2 FG !>!F2 |"^," G2 E2 DE !>!D2 | E4 z2 E2- | %28
w: pro- pter|me; gau-|de\- * * * * te|* et ex- ul- ta-|te, et ex- ul- ta-|te, quo\-|
 E2 E2"^," E2 !>!E2- | E2 C2 !>!C4 | D4"^," F4- | F2 E2 D2 E2 |"^," F2 G2 !>!F4 | %33
w: * ni- am mer\-|* ces ve-|stra co\-|* pi- o- sa|est in coe-|
"^," G2 B>A G2 F2 |"^," E4"^cresc." B,2 C2 | D2 E2 F2 G2 | F2 E2 D2 B2 |!<(!!>(! B8!<)!!>)! | %38
w: lis, co- pi- o- sa|est, co- pi-|o- sa est in|coe- lis, est in|coe-|
 !fermata!B8 |] %39
w: lis.|
V:3
!p!!<(! e4 !>!e4-!<)! | e2 e4 !>!d2 |"^," e2 B2 edcB | A4 B4 |"^," =A2"^," B4 A2 | %5
w: Be- a\-|* ti e-|stis, cum ma- le- di- xe-|rint vo-|bis ho- mi-|
[M:4/4][K:treble-8]"^," BFB!courtesy!_A GF"^,"EB | edcB"^," A2 !>!c2 | B2 !>!B4 =A2 | %8
w: nes, cum ma- le- di- xe- rint, cum|mn- le- di- xe- rint vo-|bis ho- mi-|
"^," B2 B2 fedc |"^," B2 B2 BAGF |"^," E2 !>!G2 B2 !>!B2- | BB B2 z E G>A | B2 FG AG E2 | %13
w: nes, cum ma- le- di- xe-|rint, cum ma- le- di- xe-|rint vo- bis ho\-|* mi- nes et per- se-|cu- ti vos fu- e- rint|
 z2 z B cd e2 | BB d>e"^," f2 ef | gggd ed c2 | z B B>A"^," G2 cc | A2 F2 B2 GG | %18
w: et per- se- cu\--|ti vos fu- e- rint, vos *|fu- e- rint vos fu- e- rint,|et di- xe- rint o- mne|ma- lum ad- ver- sum|
"^," Ee e>d"^," c2 ff | d2"^," BG d2 e2 |"^," B2 e3 c !>!c2 |"^," B2 !>!e2 c4 |"^," B2 !>!d2 c4 | %23
w: vos, et di- xe- rint o\-mne *|ma- lum ad- ver- sum|vos men- ti- en-|tes pro- pter|me, pro- pter|
 B2 z B (G/F/G/A/ B2) |"^," E2 e2 fg !>!f2 |"^," g2 e2 de !>!d2 | e2"^," B2 BB !>!B2 | %27
w: me; gau- de\- * * * *|te et ex- ul- ta-|te, et ex- ul- ta-|te, et ex- ul- ta-|
"^," B2 !>!B4 B2 |"^," B2 !>!B4 G2 | c4 !>!=A4 |!<(! B6 c2 | d2 e2!<)! f2 g2 |!>(! (f2 e4!>)! d2) | %33
w: te, quo- ni-|am mer- ces|ve- stra|co- pi-|o- sa est in|coe\- * *|
"^," e4"^cresc." B4- | B2 c2 d2 e2 | f2 g2 f2 e2 | d2 e2 f2 g2 |!<(! f2!<)!!>(! g2!>)! f4 | %38
w: lis, co\-|* pi- o- sa|est in coe- lis,|co- pi- o- sa|est in coe-|
 !fermata!g8 |] %39
w: lis.|
V:4
!p!!<(! E,4 !>!A,4-!<)! | A,2 E,2 !>!B,4 | E,4 z2!p! E,2 | A,G,F,E,"^," D,2 !>!B,,2 | %4
w: Be- a\-|* ti e-|stis, cum|ma- le- di- xe- rint vo-|
 F,4 !>!F,3 F, |[M:4/4]"^," B,,2 B,,2 E,D,C,B,, |"^," A,,6 !>!A,2 | E,4 !>!F,3 F, | %8
w: bis ho- mi-|nes, cum ma- le- di- xe-|rint vo-|bis ho- mi-|
"^," B,,4 B,,2 B,A, | G,F,"^," E,2 !>!E,4 |"^," E,4 B,,3 B,, | E,8 | z4 z E, G,>A, | %13
w: nes, cum ma- le-|di- xe- rint vo-|bis ho- mi-|nes|et per- se-|
 B,2 F,G, A,G,"^,"E,E, | G,>A, B,2 F,F,A,A, |"^," E,E, G,/A,/B, A,B, F,>F, | B,,4 z4 | z4 z2 E,2 | %18
w: cu- ti vos fu- e- rint, et|per- se- cu- ti vos fu- e-|rint, et per- se- cu- ti vos fu- e-|rint,|et|
 E,>D,"^," C,2 F,F, D,2 |"^," B,,2 B,2 !>!G,G,"^," E,2 | E,2 E,2 !>!A,4 |"^," E,4 F,2 F,2 | %22
w: di- xe- rint o- mne ma-|lum ad- ver- sum vos|men- ti- en\--|tes pro- pter|
"^," B,,2 !>!B,2 F,4 |"^," B,,B, (G,/F,/G,/A,/ B,2) E,2 | z2 E,2 B,E, !>!B,2 | %25
w: me pro- pter|me gau- de\- * * * * te|et ex- ul- ta-|
"^," E,2 E,2 B,E, !>!B,2 |"^," E,2 E,2 B,,E, !>!B,,2 |"^," E,2 !>!E,4 E,2 |"^," E,4 !>!E,4 | %29
w: te, et ex- ul- ta-|te, et ex- ul- ta-|te, quo- ni-|am mer-|
 C,4 F,4 | B,,8- |!>(! B,,8!>)! |"^," B,,8 |"^cresc." E,6 F,2 |!<(! G,2 A,2 B,4!<)! |!f! B,8 | %36
w: ces ve-|stra|||co- pi-|o- sa est|in|
!>(! B,8- | B,8!>)! | !fermata!E,8 |] %39
w: coe\-||lis.|

